src/images/decor/plane.svg

<svg width="193" height="270" viewBox="0 0 193 270" fill="none" xmlns="http://www.w3.org/2000/svg">
<path d="M123.406 214.837L37.9012 267.336L51.0958 176.118L73.2915 190.398L86.0387 179.756L93.4948 180.189L104.589 207.824L123.406 214.837Z" fill="#59A6F5" fill-opacity="0.5"/>
<g opacity="0.5">
<path opacity="0.5" d="M93.2124 181.149L37.9012 267.336L104.589 207.824L93.2124 181.149Z" fill="black"/>
</g>
<path d="M37.7804 268.54C37.6345 268.426 44.9955 251.418 54.2681 230.48C63.5407 209.542 71.178 192.633 71.3239 192.748C71.4698 192.863 64.1088 209.871 54.8362 230.809C45.5635 251.747 37.9108 268.525 37.7804 268.54Z" fill="#263238"/>
<path d="M65.0568 248.895C64.9109 248.78 76.5813 241.307 90.8498 232.335C105.249 223.347 116.966 216.265 117.112 216.38C117.257 216.495 105.587 223.968 91.3185 232.94C76.9198 241.928 65.2027 249.01 65.0568 248.895Z" fill="white"/>
<path d="M58.8488 252.279C58.7029 252.164 59.3081 251.695 59.9134 251.227C60.649 250.742 61.2853 250.534 61.3164 250.795C61.4623 250.91 60.857 251.379 60.2518 251.847C59.5162 252.332 58.8799 252.54 58.8488 252.279Z" fill="white"/>
<path d="M57.6099 218.578C57.4795 218.594 58.0908 217.067 58.9845 214.58C59.8782 212.094 61.3461 208.878 63.0281 205.24C64.7101 201.601 66.4542 198.485 67.7701 196.212C69.086 193.94 69.9891 192.642 70.1195 192.627C70.2498 192.611 69.5081 194.154 68.1923 196.427C67.0068 198.683 65.2782 201.93 63.5806 205.438C61.8831 208.946 60.4308 212.292 59.2608 214.679C58.3671 217.166 57.7558 218.693 57.6099 218.578Z" fill="white"/>
<path d="M103.22 157.476C103.267 157.616 102.356 157.68 101.303 157.551C100.251 157.422 99.3906 157.171 99.4881 156.996C99.5368 156.909 100.304 156.879 101.356 157.008C102.409 157.137 103.174 157.335 103.22 157.476Z" fill="#263238"/>
<path d="M117.281 154.901C117.327 155.042 115.931 155.752 114.057 156.423C112.135 156.954 110.504 157.189 110.458 157.049C110.411 156.908 111.996 156.533 113.822 155.948C115.792 155.33 117.234 154.761 117.281 154.901Z" fill="#263238"/>
<path d="M128.235 146.471C128.33 146.524 127.55 147.921 126.197 149.227C124.794 150.62 123.445 151.47 123.398 151.33C123.352 151.189 124.415 150.18 125.769 148.874C127.123 147.568 128.044 146.365 128.235 146.471Z" fill="#263238"/>
<path d="M133.099 133.725C133.243 133.691 133.323 135.339 132.874 137.264C132.424 139.189 131.788 140.552 131.598 140.446C131.502 140.393 131.948 138.923 132.348 137.086C132.654 135.195 132.859 133.706 133.099 133.725Z" fill="#263238"/>
<path d="M130.884 119.778C131.028 119.743 131.828 121.221 132.29 123.082C132.846 124.996 132.926 126.644 132.782 126.678C132.638 126.712 132.27 125.132 131.713 123.218C131.252 121.357 130.74 119.812 130.884 119.778Z" fill="#263238"/>
<path d="M122.325 108.015C122.373 107.928 122.706 108.228 123.229 108.634C123.752 109.041 124.512 109.694 125.224 110.435C126.647 111.916 127.447 113.393 127.399 113.481C127.255 113.515 126.213 112.246 124.885 110.818C124.173 110.077 123.557 109.39 123.083 108.896C122.513 108.349 122.325 108.015 122.325 108.015Z" fill="#263238"/>
<path d="M108.674 102.687C108.628 102.547 110.354 102.365 112.362 102.799C114.37 103.232 115.944 103.996 115.846 104.17C115.749 104.345 114.222 103.722 112.214 103.288C110.35 102.821 108.721 102.828 108.674 102.687Z" fill="#263238"/>
<path d="M98.2517 110.613C98.1564 110.559 98.4109 108.984 99.4321 107.378C100.502 105.684 101.947 104.887 101.993 105.028C102.04 105.168 100.881 106.125 99.9552 107.784C98.9362 109.162 98.4911 110.632 98.2517 110.613Z" fill="#263238"/>
<path d="M101.238 124.075C101.189 124.162 99.859 122.962 99.0142 121.116C98.1694 119.27 97.9939 117.569 98.0893 117.622C98.2333 117.588 98.6015 119.168 99.495 120.926C100.293 122.631 101.335 123.9 101.238 124.075Z" fill="#263238"/>
<path d="M114.206 130.625C114.252 130.765 112.528 130.719 110.474 130.145C108.419 129.571 106.943 128.633 106.992 128.546C107.089 128.371 108.567 129.082 110.527 129.602C112.676 130.23 114.254 130.538 114.206 130.625Z" fill="#263238"/>
<path d="M128.266 128.051C128.313 128.191 127.059 129.095 125.184 129.766C123.214 130.385 121.632 130.532 121.537 130.479C121.49 130.339 123.028 129.823 124.854 129.238C126.729 128.567 128.171 127.998 128.266 128.051Z" fill="#263238"/>
<path d="M138.509 118.88C138.605 118.933 137.825 120.33 136.566 121.689C135.259 123.136 134.005 124.039 133.91 123.986C133.815 123.933 134.832 122.782 136.139 121.336C137.397 119.977 138.414 118.827 138.509 118.88Z" fill="#263238"/>
<path d="M144.805 106.704C144.9 106.757 144.55 108.28 143.815 110.045C143.079 111.811 142.204 113.155 142.109 113.102C142.014 113.048 142.554 111.632 143.289 109.867C144.025 108.101 144.614 106.598 144.805 106.704Z" fill="#263238"/>
<path d="M147.281 93.0842C147.425 93.05 147.505 94.6981 147.295 96.6422C147.085 98.5863 146.64 100.056 146.545 100.002C146.45 99.9493 146.56 98.4076 146.77 96.4635C146.931 94.6067 147.042 93.0651 147.281 93.0842Z" fill="#263238"/>
<path d="M146.121 79.0381C146.265 79.0039 146.777 80.5496 147.046 82.5318C147.315 84.514 147.299 86.1089 147.204 86.0557C147.06 86.0898 146.836 84.4759 146.519 82.581C146.201 80.6861 145.977 79.0722 146.121 79.0381Z" fill="#263238"/>
<path d="M141.46 65.4425C141.604 65.4084 142.453 66.7984 143.153 68.6782C143.854 70.5581 144.366 72.1037 144.222 72.1378C144.078 72.172 143.422 70.6605 142.673 68.868C141.972 66.9881 141.411 65.5298 141.46 65.4425Z" fill="#263238"/>
<path d="M133.576 53.141C133.72 53.1069 134.86 54.2009 136.137 55.9442C137.367 57.547 138.167 59.0243 137.974 59.1458C137.83 59.1799 136.837 57.824 135.702 56.2744C134.425 54.5311 133.432 53.1752 133.576 53.141Z" fill="#263238"/>
<path d="M122.026 43.6028C122.075 43.5154 123.648 44.2791 125.41 45.3771C127.124 46.5623 128.358 47.7094 128.31 47.7968C128.261 47.8841 126.834 46.8584 125.167 45.8137C123.405 44.7157 121.929 43.7774 122.026 43.6028Z" fill="#263238"/>
<path d="M108.382 37.5914C108.431 37.5041 110.104 37.8653 111.966 38.5608C113.923 39.3094 115.352 40.1073 115.304 40.1946C115.255 40.2819 113.679 39.746 111.722 38.9974C109.812 38.3893 108.285 37.766 108.382 37.5914Z" fill="#263238"/>
<path d="M93.9013 33.976C93.8547 33.8355 95.5767 34.1094 97.5846 34.5429C99.5925 34.9764 101.217 35.4249 101.12 35.5996C101.071 35.6869 99.4441 35.4662 97.4362 35.0327C95.4771 34.5119 93.8526 34.0633 93.9013 33.976Z" fill="#263238"/>
<path d="M79.2124 32.0767C79.1659 31.9362 80.89 31.9823 82.9001 32.1879C84.9101 32.3936 86.6321 32.6675 86.5347 32.8422C86.5812 32.9827 84.8571 32.9366 82.847 32.7309C80.8857 32.4379 79.1637 32.164 79.2124 32.0767Z" fill="#263238"/>
<path d="M64.5572 31.6848C64.5106 31.5443 66.1882 31.4498 68.2004 31.4277C70.2126 31.4055 71.888 31.5389 71.9346 31.6794C71.9812 31.8199 70.3036 31.9144 68.2914 31.9365C66.1838 31.9055 64.4597 31.8594 64.5572 31.6848Z" fill="#263238"/>
<path d="M53.53 32.6309C53.4834 32.4904 54.2523 32.2324 55.3072 32.134C56.362 32.0356 57.1288 32.0054 57.1754 32.1459C57.222 32.2864 56.3577 32.4912 55.3982 32.6428C54.4386 32.7944 53.5766 32.7714 53.53 32.6309Z" fill="#263238"/>
</svg>

<svg width="193" height="270" viewBox="0 0 193 270" fill="none" xmlns="http://www.w3.org/2000/svg"><path d="M123.406 214.837l-85.505 52.499 13.195-91.218 22.196 14.28 12.747-10.642 7.456.433 11.094 27.635 18.817 7.013z" fill="#59A6F5" fill-opacity=".5"/><path opacity=".5" d="M93.212 181.149l-55.31 86.187 66.687-59.512-11.377-26.675z" fill="#000"/><path d="M37.78 268.54c-.145-.114 7.215-17.122 16.488-38.06 9.273-20.938 16.91-37.847 17.056-37.732.146.115-7.215 17.123-16.488 38.061S37.911 268.525 37.78 268.54z" fill="#263238"/><path d="M65.057 248.895c-.146-.115 11.524-7.588 25.793-16.56 14.399-8.988 26.116-16.07 26.262-15.955.145.115-11.525 7.588-25.793 16.56-14.4 8.988-26.116 16.07-26.262 15.955zM58.849 252.279c-.146-.115.46-.584 1.064-1.052.736-.485 1.372-.693 1.403-.432.146.115-.459.584-1.064 1.052-.736.485-1.372.693-1.403.432zM57.61 218.578c-.13.016.48-1.511 1.374-3.998.894-2.486 2.362-5.702 4.044-9.34 1.682-3.639 3.426-6.755 4.742-9.028 1.316-2.272 2.22-3.57 2.35-3.585.13-.016-.612 1.527-1.928 3.8-1.185 2.256-2.914 5.503-4.611 9.011-1.698 3.508-3.15 6.854-4.32 9.241-.894 2.487-1.505 4.014-1.651 3.899z" fill="#fff"/><path d="M103.22 157.476c.047.14-.864.204-1.917.075-1.052-.129-1.912-.38-1.815-.555.049-.087.816-.117 1.868.012 1.053.129 1.818.327 1.864.468zM117.281 154.901c.046.141-1.35.851-3.224 1.522-1.922.531-3.553.766-3.599.626-.047-.141 1.538-.516 3.364-1.101 1.97-.618 3.412-1.187 3.459-1.047zM128.235 146.471c.095.053-.685 1.45-2.038 2.756-1.403 1.393-2.752 2.243-2.799 2.103-.046-.141 1.017-1.15 2.371-2.456s2.275-2.509 2.466-2.403zM133.099 133.725c.144-.034.224 1.614-.225 3.539-.45 1.925-1.086 3.288-1.276 3.182-.096-.053.35-1.523.75-3.36.306-1.891.511-3.38.751-3.361zM130.884 119.778c.144-.035.944 1.443 1.406 3.304.556 1.914.636 3.562.492 3.596-.144.034-.512-1.546-1.069-3.46-.461-1.861-.973-3.406-.829-3.44zM122.325 108.015c.048-.087.381.213.904.619.523.407 1.283 1.06 1.995 1.801 1.423 1.481 2.223 2.958 2.175 3.046-.144.034-1.186-1.235-2.514-2.663-.712-.741-1.328-1.428-1.802-1.922-.57-.547-.758-.881-.758-.881zM108.674 102.687c-.046-.14 1.68-.322 3.688.112 2.008.433 3.582 1.197 3.484 1.371-.097.175-1.624-.448-3.632-.882-1.864-.467-3.493-.46-3.54-.601zM98.252 110.613c-.096-.054.159-1.629 1.18-3.235 1.07-1.694 2.515-2.491 2.561-2.35.047.14-1.112 1.097-2.038 2.756-1.019 1.378-1.464 2.848-1.703 2.829zM101.238 124.075c-.049.087-1.379-1.113-2.224-2.959-.845-1.846-1.02-3.547-.925-3.494.144-.034.513 1.546 1.406 3.304.798 1.705 1.84 2.974 1.743 3.149zM114.206 130.625c.046.14-1.678.094-3.732-.48-2.055-.574-3.531-1.512-3.482-1.599.097-.175 1.575.536 3.535 1.056 2.149.628 3.727.936 3.679 1.023zM128.266 128.051c.047.14-1.207 1.044-3.082 1.715-1.97.619-3.552.766-3.647.713-.047-.14 1.491-.656 3.317-1.241 1.875-.671 3.317-1.24 3.412-1.187zM138.509 118.88c.096.053-.684 1.45-1.943 2.809-1.307 1.447-2.561 2.35-2.656 2.297-.095-.053.922-1.204 2.229-2.65 1.258-1.359 2.275-2.509 2.37-2.456zM144.805 106.704c.095.053-.255 1.576-.99 3.341-.736 1.766-1.611 3.11-1.706 3.057-.095-.054.445-1.47 1.18-3.235.736-1.766 1.325-3.269 1.516-3.163zM147.281 93.084c.144-.034.224 1.614.014 3.558-.21 1.944-.655 3.414-.75 3.36-.095-.053.015-1.594.225-3.538.161-1.857.272-3.399.511-3.38zM146.121 79.038c.144-.034.656 1.512.925 3.494.269 1.982.253 3.577.158 3.524-.144.034-.368-1.58-.685-3.475-.318-1.895-.542-3.509-.398-3.543zM141.46 65.442c.144-.034.993 1.356 1.693 3.236.701 1.88 1.213 3.426 1.069 3.46-.144.034-.8-1.478-1.549-3.27-.701-1.88-1.262-3.338-1.213-3.425zM133.576 53.141c.144-.034 1.284 1.06 2.561 2.803 1.23 1.603 2.03 3.08 1.837 3.202-.144.034-1.137-1.322-2.272-2.872-1.277-1.743-2.27-3.099-2.126-3.133zM122.026 43.603c.049-.088 1.622.676 3.384 1.774 1.714 1.185 2.948 2.332 2.9 2.42-.049.087-1.476-.939-3.143-1.983-1.762-1.098-3.238-2.037-3.141-2.211zM108.382 37.591c.049-.087 1.722.274 3.584.97 1.957.748 3.386 1.546 3.338 1.634-.049.087-1.625-.449-3.582-1.198-1.91-.608-3.437-1.231-3.34-1.406zM93.901 33.976c-.046-.14 1.676.133 3.684.567 2.008.433 3.632.882 3.535 1.057-.049.087-1.676-.134-3.684-.567-1.959-.521-3.583-.97-3.535-1.057zM79.212 32.077c-.046-.14 1.678-.095 3.688.11 2.01.207 3.732.48 3.635.655.046.14-1.678.095-3.688-.111-1.961-.293-3.683-.567-3.635-.654zM64.557 31.685c-.046-.14 1.631-.235 3.643-.257 2.013-.023 3.688.11 3.735.251.046.14-1.631.235-3.644.258-2.107-.032-3.831-.078-3.734-.252zM53.53 32.63c-.047-.14.722-.398 1.777-.496 1.055-.098 1.822-.129 1.868.012.047.14-.817.345-1.777.497-.96.151-1.821.128-1.868-.012z" fill="#263238"/></svg>
